images/contact-btn.svg

<svg width="418" height="57" viewBox="0 0 418 57" fill="none" xmlns="http://www.w3.org/2000/svg">
<path d="M4.10156 29.8338L34.9826 4.09961H413.902V26.7654L383.021 52.4996H4.10156V29.8338Z" fill="#F6780F" stroke="#F6780F"/>
<path opacity="0.3" d="M33.5 0.75H33.4089L33.3392 0.808574L0.839202 28.1086L0.75 28.1835V28.3V55.6V55.85H1H384.5H384.591L384.661 55.7914L417.161 28.4914L417.25 28.4165V28.3V1V0.75H417H33.5Z" stroke="#F6780F" stroke-width="0.5"/>
</svg>

<svg width="418" height="57" fill="none" xmlns="http://www.w3.org/2000/svg"><path d="M4.102 29.834L34.982 4.1h378.92v22.665L383.021 52.5H4.101V29.834z" fill="#F6780F" stroke="#F6780F"/><path opacity=".3" d="M33.5.75h-.091l-.07.059-32.5 27.3-.089.074V55.85h383.841l.07-.059 32.5-27.3.089-.075V.75H33.5z" stroke="#F6780F" stroke-width=".5"/></svg>
